X:1

T:Road to the Isles

C:Trad.

R:Barndance

M:4/4

L:1/8

K:D

A>d|:"D"f4 a>fe>f|"G"d>ed>c B2 d>c|B>GB>c d>e f<a|"A"e6 A>d|

"D"f4 a>fe>f|"G"d>ed>c B2 g2|"D"f>af>d "A"A>c e<c|1 "D"d6 A>d:|2 "D"d6 fg|

|:"D"a>AA>A f>AA>A|"G"d>ed>c B2 d>c|B>GB>c d>e f<a|"A"e6 f>g|

"D"a>AA>A f>AA>A|"G"d>ed>c B2 g2|"D"f>af>d "A"A>c e<c|1 "D"d6 fg:|2 "D"d6 z2|

           

ROAD TO WEST MABOU, THE.  Canadian, Reel. Canada, Cape Breton. D Major. Standard tuning. AB. Composed by the late Cape Breton fiddler and composer Jerry Holland (1955-2009). Cranford (Jerry Holland: The Second Collection), 2000; No. 135, pg. 51.

 

ROADSIDE FIDDLER, THE. AKA and see “The Lumberjack.”

 

ROADSIDE POLKA. Canadian, Polka. Canada, Cape Breton. Composed by Cape Breton, Nova Scotia, fiddler and composer Dan R. MacDonald. MacDonald was inspired to write the tune while sitting on a logpile on the side of the road one time while walking to his cousin Alex Francis MacKay's home in Kingsville.

           

ROANE COUNTY RAG. Old‑Time, Country Rag? USA, East Tennessee. County 403, "Roane County Ramblers" (East Tennessee) {originally recorded 1929}.

           

ROANOKE. Old‑Time, Breakdown. USA, Nebraska (though Christeson says the tune is not very widely known in the mid‑west). G Major. Standard. AABB. Source for notated version: Bob Walters (from the radio, probably) {Burt County, Nebraska} [Christeson]. R.P. Christeson (Old Time Fiddlers Reprtory, Vol. 2), 1984; pg. 83.

           

ROARING BARMAID. Irish, Jig. G Major. Standard. ABB. Composed by Anthony “Sully” Sullivan. Sullivan (Sully’s Irish Music Book, Vol. 1), 1979. Tabache. Green Linnet GLCD 1200, Lunasa – “Otherworld” (mislabled as “The Butlers of Glen Avenue”).

